assets/icons/health-heart.svg

<svg width="24" height="25" viewBox="0 0 24 25" fill="none" xmlns="http://www.w3.org/2000/svg">
<path d="M14.8048 3.66638C13.4099 3.66638 12.1274 4.24388 11.2499 5.21887C10.3724 4.24388 9.08995 3.66638 7.69495 3.66638C5.1075 3.66638 3 5.68388 3 8.16633C3 14.5188 10.5449 19.1162 10.8674 19.3112C10.9799 19.3787 11.1149 19.4162 11.2499 19.4162C11.3174 19.4162 11.3774 19.4087 11.4449 19.3862C10.8749 18.4412 10.4999 17.3387 10.4999 16.0787V13.0713C10.4999 12.1863 11.0624 11.3988 11.9024 11.1138L15.8323 9.77883C16.2598 9.62883 16.7399 9.62883 17.1674 9.77883L19.1773 10.4613C19.3798 9.72633 19.4998 8.96133 19.4998 8.16633C19.4998 5.68388 17.3923 3.66638 14.8048 3.66638Z" fill="white"/>
<path d="M20.6182 12.5358L16.6807 11.1963C16.5636 11.1558 16.4363 11.1558 16.3192 11.1963L12.3818 12.5358C12.2704 12.5733 12.1736 12.6449 12.1051 12.7405C12.0366 12.836 11.9998 12.9507 12 13.0683V16.0817C12 19.7597 16.1055 21.5477 16.2802 21.6219C16.3498 21.6512 16.4245 21.6664 16.5 21.6664C16.5755 21.6664 16.6502 21.6512 16.7197 21.6219C16.8945 21.5469 20.9999 19.7597 20.9999 16.0817V13.0683C21.0001 12.9507 20.9634 12.836 20.8949 12.7405C20.8264 12.6449 20.7296 12.5733 20.6182 12.5358ZM18.9645 15.3797L16.902 18.0047C16.8395 18.0843 16.7616 18.1504 16.6729 18.1991C16.5841 18.2477 16.4865 18.278 16.3858 18.2879C16.2851 18.2979 16.1835 18.2873 16.087 18.257C15.9905 18.2266 15.9011 18.177 15.8242 18.1112L14.5117 16.9862C14.4339 16.9231 14.3694 16.845 14.3222 16.7566C14.275 16.6682 14.246 16.5712 14.2369 16.4714C14.2278 16.3715 14.2389 16.2709 14.2693 16.1754C14.2998 16.0799 14.3491 15.9915 14.4144 15.9154C14.4796 15.8393 14.5594 15.777 14.6491 15.7323C14.7388 15.6875 14.8366 15.6612 14.9366 15.6549C15.0367 15.6486 15.137 15.6624 15.2316 15.6955C15.3262 15.7287 15.4132 15.7804 15.4875 15.8477L16.206 16.4635L17.7847 14.4542C17.8455 14.3767 17.9209 14.3119 18.0068 14.2635C18.0927 14.2152 18.1872 14.1843 18.285 14.1726C18.3829 14.1609 18.4821 14.1686 18.5769 14.1953C18.6717 14.222 18.7604 14.2672 18.8377 14.3282C18.9153 14.3888 18.9801 14.4641 19.0285 14.5498C19.0769 14.6355 19.1079 14.7299 19.1196 14.8276C19.1314 14.9253 19.1238 15.0244 19.0971 15.1192C19.0705 15.2139 19.0254 15.3025 18.9645 15.3797Z" fill="white"/>
</svg>

<svg xmlns="http://www.w3.org/2000/svg" width="24" height="25" fill="none" viewBox="0 0 24 25"><path fill="#fff" d="M14.805 3.666c-1.395 0-2.678.578-3.555 1.553-.878-.975-2.16-1.553-3.555-1.553C5.107 3.666 3 5.684 3 8.166c0 6.353 7.545 10.95 7.867 11.145a.75.75 0 0 0 .383.105.6.6 0 0 0 .195-.03c-.57-.945-.945-2.047-.945-3.307V13.07c0-.885.562-1.672 1.402-1.957l3.93-1.335c.428-.15.908-.15 1.335 0l2.01.682a8.6 8.6 0 0 0 .323-2.295c0-2.482-2.108-4.5-4.695-4.5"/><path fill="#fff" d="m20.618 12.536-3.937-1.34a.55.55 0 0 0-.362 0l-3.937 1.34a.56.56 0 0 0-.382.532v3.014c0 3.678 4.105 5.466 4.28 5.54a.57.57 0 0 0 .44 0c.175-.075 4.28-1.862 4.28-5.54v-3.014a.56.56 0 0 0-.382-.532m-1.653 2.844-2.063 2.625a.75.75 0 0 1-1.078.106l-1.312-1.125a.751.751 0 0 1 .425-1.331.75.75 0 0 1 .55.193l.719.615 1.579-2.009a.75.75 0 1 1 1.18.926"/></svg>
